X:135
T:score218
L:1/8
Q:1/4=96
M:3/4
I:linebreak $
K:Gmin
!p! d2 G2 A2 | BA Bc Bc | d2 G2 A2 | B6!mf! |$ b2 ag fe | d2 cB cd | e2 G2 A2 | ^F6 |] %8
